X: 273
T:Nesciens mater virgo virum / Ipsum regem angelorum
N: Derived from Jos2407-Nesciens_mater_virgo.krn
C: Josquin des Prez
%%abc-version 2.0
%%abcx-abcm2ps-target-version 5.9.1 (29 Sep 2008)
%%abc-creator hum2abc beta
%%abcx-conversion-date 2019/02/12 16:15:52
%%abc-edited-by Jesse Rodin
%%abc-edited-by Joel Chapman 2012/1/28
%%abcx-initial-encoding-date 2012/01/28/
%%humdrum-veritas 369715473
%%humdrum-veritas-data 1613395935
%%linebreak <none>
%%barnumbers 0
L: 1/4
M: 2/1
Q: 1/2=120
V: 1 clef=treble
V: 2 clef=treble-8
V: 3 clef=treble-8
V: 4 clef=bass
V: 5 clef=bass
K: F
[V:1] F8 | 
[V:2] z8 | 
[V:3] z8 | 
[V:4] z8 | 
[V:5] z8 | 
[V:1] F4F4 | 
[V:2] z8 | 
[V:3] z8 | 
[V:4] z8 | 
[V:5] z8 | 
[V:1] G8 | 
[V:2] z8 | 
[V:3] z8 | 
[V:4] z8 | 
[V:5] z8 | 
[V:1] F4c3B | 
[V:2] z8 | 
[V:3] z8 | 
[V:4] z8 | 
[V:5] F,8 | 
[V:1] AGF3ED2- | 
[V:2] z8 | 
[V:3] z8 | 
[V:4] z8 | 
[V:5] F,4F,4 | 
[V:1] D2C2B,4 | 
[V:2] z8 | 
[V:3] z8 | 
[V:4] z8 | 
[V:5] G,8 | 
[V:1] A,4z2c2- | 
[V:2] c8 | 
[V:3] z8 | 
[V:4] z8 | 
[V:5] F,4C3B, | 
[V:1] cBA4G2 | 
[V:2] c4c4 | 
[V:3] z8 | 
[V:4] z8 | 
[V:5] A,G,F,4E,2 | 
[V:1] F3ED4 | 
[V:2] d8 | 
[V:3] z8 | 
[V:4] z8 | 
[V:5] D,3C,B,,4 | 
[V:1] A8- | 
[V:2] c3BAGA2 | 
[V:3] z8 | 
[V:4] F,8 | 
[V:5] F,,8 | 
[V:1] A8 | 
[V:2] F2f3ed2- | 
[V:3] z8 | 
[V:4] F,4F,4 | 
[V:5] D,8 | 
[V:1] B4G4 | 
[V:2] dcBAB4 | 
[V:3] z8 | 
[V:4] G,8 | 
[V:5] G,,8 | 
[V:1] A4A3G | 
[V:2] A8 | 
[V:3] z8 | 
[V:4] F,4C3B, | 
[V:5] D,4C,4 | 
[V:1] F4G4 | 
[V:2] z2A3Bc2 | 
[V:3] z8 | 
[V:4] A,G,F,4E,2 | 
[V:5] F,,4z4 | 
[V:1] F3ED4 | 
[V:2] d2A4G2 | 
[V:3] z8 | 
[V:4] D,3C,B,,4 | 
[V:5] z8 | 
[V:1] C2c2d2c2- | 
[V:2] A4z4 | 
[V:3] F8 | 
[V:4] A,,4z2C,2 | 
[V:5] z2F,,2B,,2A,,2 | 
[V:1] cBAGA3G/F/ | 
[V:2] c8- | 
[V:3] F4F4 | 
[V:4] F,3E,C,4 | 
[V:5] F,,8 | 
[V:1] E2G4FE | 
[V:2] c8 | 
[V:3] G8 | 
[V:4] E,8 | 
[V:5] C,8 | 
[V:1] F8 | 
[V:2] A8 | 
[V:3] F8- | 
[V:4] C,8 | 
[V:5] F,,8 | 
[V:1] F4z4 | 
[V:2] c8- | 
[V:3] F8 | 
[V:4] z4C,4 | 
[V:5] z2F,,3G,,A,,B,, | 
[V:1] z2c4BA | 
[V:2] c8 | 
[V:3] z8 | 
[V:4] A,,4F,,4 | 
[V:5] C,2F,,G,,A,,B,,C,D, | 
[V:1] G4G4 | 
[V:2] z8 | 
[V:3] G4G4 | 
[V:4] C,8 | 
[V:5] E,2F,4E,2 | 
[V:1] F8 | 
[V:2] c8- | 
[V:3] A8 | 
[V:4] F,,3G,,A,,B,,C,D, | 
[V:5] F,8 | 
[V:1] z8 | 
[V:2] c4c4 | 
[V:3] G8 | 
[V:4] E,2F,4E,2 | 
[V:5] C,8 | 
[V:1] z2c4BA | 
[V:2] A2FGABcd | 
[V:3] F8 | 
[V:4] F,4F,4 | 
[V:5] F,,4z2F,,2 | 
[V:1] G2F2G4 | 
[V:2] e2f4e2 | 
[V:3] z8 | 
[V:4] E,2D,2E,4 | 
[V:5] A,,2B,,2C,4 | 
[V:1] F8 | 
[V:2] f8- | 
[V:3] z8 | 
[V:4] C,8 | 
[V:5] F,,8- | 
[V:1] z2A2F2A2- | 
[V:2] f8 | 
[V:3] z8 | 
[V:4] z2F,2D,2F,2 | 
[V:5] F,,8 | 
[V:1] AGF4E2 | 
[V:2] z8 | 
[V:3] z8 | 
[V:4] C,3B,,C,4 | 
[V:5] z8 | 
[V:1] F8 | 
[V:2] z2a2f2a2- | 
[V:3] z8 | 
[V:4] F,,8 | 
[V:5] z2F,2D,2F,2 | 
[V:1] z8 | 
[V:2] agf4e2 | 
[V:3] z8 | 
[V:4] z8 | 
[V:5] C,3B,,C,4 | 
[V:1] z2c4c2 | 
[V:2] f8 | 
[V:3] F6F2 | 
[V:4] z8 | 
[V:5] F,,8 | 
[V:1] c8 | 
[V:2] z2c4c2 | 
[V:3] F8- | 
[V:4] z2C,4C,2 | 
[V:5] z2F,,4F,,2 | 
[V:1] A3Bc4 | 
[V:2] c4A4 | 
[V:3] F8- | 
[V:4] C,8 | 
[V:5] F,,8 | 
[V:1] B2d4B2 | 
[V:2] B6AG | 
[V:3] F8 | 
[V:4] D,8 | 
[V:5] B,,8 | 
[V:1] c4B4- | 
[V:2] F4G4 | 
[V:3] A4B4- | 
[V:4] C,4D,2B,,2- | 
[V:5] A,,4G,,4 | 
[V:1] B2B4AG | 
[V:2] d8- | 
[V:3] B4B4- | 
[V:4] B,,2B,,2B,,4 | 
[V:5] z2G,,4G,,2 | 
[V:1] F2A4GF | 
[V:2] d8 | 
[V:3] B2AGA4 | 
[V:4] F,8 | 
[V:5] D,8 | 
[V:1] G8 | 
[V:2] B8 | 
[V:3] G8 | 
[V:4] D,4z2D,2 | 
[V:5] G,,4z2G,,2 | 
[V:1] z8 | 
[V:2] z8 | 
[V:3] z8 | 
[V:4] C,2A,,2D,4 | 
[V:5] A,,4B,,4 | 
[V:1] z8 | 
[V:2] z2c2d2B2 | 
[V:3] z8 | 
[V:4] C,4B,,4 | 
[V:5] A,,2F,,2G,,4 | 
[V:1] z8 | 
[V:2] c4B4 | 
[V:3] z4G4 | 
[V:4] A,,2F,,2G,,4 | 
[V:5] F,,2F,4E,2 | 
[V:1] z8 | 
[V:2] A2F2G4 | 
[V:3] A4B4 | 
[V:4] F,,2F,4E,2 | 
[V:5] F,4z4 | 
[V:1] z8 | 
[V:2] F2f4e2 | 
[V:3] A2F2G4 | 
[V:4] F,4C,4 | 
[V:5] z8 | 
[V:1] z8 | 
[V:2] f2c3BAG | 
[V:3] F8 | 
[V:4] F,,8 | 
[V:5] C,4C,4 | 
[V:1] F4F4 | 
[V:2] (3:2:6F3GA2B3cd2 | 
[V:3] z8 | 
[V:4] z2F,2D,2F,2 | 
[V:5] D,8 | 
[V:1] G8 | 
[V:2] e2g4fe | 
[V:3] z8 | 
[V:4] E,8 | 
[V:5] C,8 | 
[V:1] F4FGAF | 
[V:2] f8 | 
[V:3] F8 | 
[V:4] C,8 | 
[V:5] F,,8 | 
[V:1] A6GF | 
[V:2] c4d2AB | 
[V:3] F8 | 
[V:4] z8 | 
[V:5] z2F,2D,2F,2 | 
[V:1] E2F4E2 | 
[V:2] c8 | 
[V:3] G8 | 
[V:4] z8 | 
[V:5] C,8 | 
[V:1] F8- | 
[V:2] A8 | 
[V:3] F8 | 
[V:4] z8 | 
[V:5] F,,8 | 
[V:1] F8 | 
[V:2] B6B2 | 
[V:3] z8 | 
[V:4] D,6D,2 | 
[V:5] B,,6B,,2 | 
[V:1] z4F4- | 
[V:2] B8 | 
[V:3] z8 | 
[V:4] D,8 | 
[V:5] B,,4B,,4 | 
[V:1] F2F2F3G | 
[V:2] A8 | 
[V:3] F6F2 | 
[V:4] C,8 | 
[V:5] F,,8 | 
[V:1] A2DEFGA2- | 
[V:2] d6d2 | 
[V:3] F3GA2DE | 
[V:4] F,,8 | 
[V:5] z4F,4 | 
[V:1] A2DEFGA2- | 
[V:2] d8- | 
[V:3] FGA4F2 | 
[V:4] z4F,4- | 
[V:5] D,8- | 
[V:1] AGG4F2 | 
[V:2] d8 | 
[V:3] B4A4 | 
[V:4] F,2F,2F,4 | 
[V:5] D,8 | 
[V:1] G4z2E2- | 
[V:2] B4z4 | 
[V:3] G8- | 
[V:4] D,8 | 
[V:5] G,,4z2C,2- | 
[V:1] EFG2E3F | 
[V:2] c6c2 | 
[V:3] G8- | 
[V:4] z2C,3D,E,2 | 
[V:5] C,D,E,2C,4 | 
[V:1] G6E2 | 
[V:2] c8 | 
[V:3] G8- | 
[V:4] C,4z4 | 
[V:5] z4z2C,2- | 
[V:1] E4z2E2- | 
[V:2] c8 | 
[V:3] G8- | 
[V:4] z2C,3D,E,2 | 
[V:5] C,D,E,2C,4 | 
[V:1] EFG2E3F | 
[V:2] z8 | 
[V:3] G8- | 
[V:4] C,4E,4- | 
[V:5] E,6C,2 | 
[V:1] G6E2 | 
[V:2] z2c3de2 | 
[V:3] G8- | 
[V:4] E,2C,2C,4 | 
[V:5] C,8- | 
[V:1] E8- | 
[V:2] c4e4- | 
[V:3] G8- | 
[V:4] z2C,3D,E,2 | 
[V:5] C,8- | 
[V:1] E8 ||  
[V:2] e2c2c4 ||  
[V:3] G8 ||  
[V:4] C,8 ||  
[V:5] C,8 ||  
[V:1]  [K:F] [M:2/1]z8 | 
[V:2]  [K:F] [M:2/1]z8 | 
[V:3]  [K:F] [M:2/1]G8 | 
[V:4]  [K:F] [M:2/1]z8 | 
[V:5]  [K:F] [M:2/1]z8 | 
[V:1] z8 | 
[V:2] z8 | 
[V:3] G4A4 | 
[V:4] z8 | 
[V:5] z8 | 
[V:1] z8 | 
[V:2] z8 | 
[V:3] G2CDEFG2 | 
[V:4] C,8 | 
[V:5] z8 | 
[V:1] z8 | 
[V:2] z8 | 
[V:3] C2c3=B=BA | 
[V:4] C,4D,4 | 
[V:5] z8 | 
[V:1] z8 | 
[V:2] z8 | 
[V:3] c8 | 
[V:4] C,2F,,G,,A,,B,,C,2 | 
[V:5] F,,8 | 
[V:1] z8 | 
[V:2] z8 | 
[V:3] z2A2B2G2 | 
[V:4] F,,2F,4E,2 | 
[V:5] F,,4G,,4 | 
[V:1] z2C3B,G,2 | 
[V:2] c8- | 
[V:3] A3Bc4 | 
[V:4] F,4z4 | 
[V:5] F,,3G,,A,,B,,C,2 | 
[V:1] A,4z4 | 
[V:2] c8- | 
[V:3] z2c3BG2 | 
[V:4] z2F,,G,,A,,B,,C,2 | 
[V:5] F,,2F,4E,2 | 
[V:1] z2C3B,G,2 | 
[V:2] c8 | 
[V:3] A4z4 | 
[V:4] F,,2F,4E,2 | 
[V:5] F,2F,,G,,A,,B,,C,2 | 
[V:1] A,4B,4 | 
[V:2] c4d4 | 
[V:3] z8 | 
[V:4] F,4B,,4 | 
[V:5] F,,2F,2D,3E, | 
[V:1] A,2A2G2A2- | 
[V:2] c2f2d3c | 
[V:3] z2A2B2A2- | 
[V:4] F,,4z2F,2- | 
[V:5] F,4G,2D,2 | 
[V:1] A2GFE3D | 
[V:2] A3Bc4 | 
[V:3] ABc4BA | 
[V:4] F,G,A,4G,F, | 
[V:5] F,4C,4- | 
[V:1] ECG4FE | 
[V:2] z2c3BAG | 
[V:3] G3FG4 | 
[V:4] E,8 | 
[V:5] C,8 | 
[V:1] F8 | 
[V:2] A2FGABcd | 
[V:3] FGABcdc2- | 
[V:4] C,8- | 
[V:5] F,,8 | 
[V:1] z4G4 | 
[V:2] cFf4e2 | 
[V:3] c2BAG4 | 
[V:4] C,8 | 
[V:5] C,8 | 
[V:1] A4A4- | 
[V:2] f8 | 
[V:3] FGABc2d2- | 
[V:4] z2F,2C,2F,2- | 
[V:5] F,,4z4 | 
[V:1] A2G2F2D2 | 
[V:2] z4F4 | 
[V:3] dcc4=B2 | 
[V:4] F,2E,2D,4 | 
[V:5] z8 | 
[V:1] ECF4E2 | 
[V:2] G2A3FG2 | 
[V:3] c8- | 
[V:4] C,4z2C,2 | 
[V:5] z8 | 
[V:1] F4z4 | 
[V:2] F4z4 | 
[V:3] c4z4 | 
[V:4] F,G,A,B,C2D2- | 
[V:5] z2F,2C,2F,2- | 
[V:1] z8 | 
[V:2] z8 | 
[V:3] z4F4 | 
[V:4] D2C4=B,2 | 
[V:5] F,2E,2D,4 | 
[V:1] z8 | 
[V:2] z4z2CD | 
[V:3] G6G2 | 
[V:4] C8 | 
[V:5] C,8 | 
[V:1] G4D2F2- | 
[V:2] EFGABcd2- | 
[V:3] G4z4 | 
[V:4] z2C,2G,2D,2 | 
[V:5] z4z2B,,2- | 
[V:1] F2E2D4 | 
[V:2] d2c4=B2 | 
[V:3] z4z2G2 | 
[V:4] F,2C,2G,4 | 
[V:5] B,,2C,2G,,4 | 
[V:1] C4z2G2 | 
[V:2] c3cc3d | 
[V:3] G3F/G/A2G2 | 
[V:4] C,8 | 
[V:5] C,8- | 
[V:1] G3F/G/A2G2 | 
[V:2] e2c2c4 | 
[V:3] E4z4 | 
[V:4] z4z2G,2 | 
[V:5] C,8- | 
[V:1] E4z2G2 | 
[V:2] z2c2c3d | 
[V:3] z8 | 
[V:4] G,3F,/G,/A,2G,2 | 
[V:5] C,8- | 
[V:1] G3F/G/A2G2 | 
[V:2] e2c2c4 | 
[V:3] z4z2G2 | 
[V:4] E,4z4 | 
[V:5] C,8- | 
[V:1] E2c3BA2 | 
[V:2] c8 | 
[V:3] G3F/G/A2c2- | 
[V:4] E,8 | 
[V:5] C,8- | 
[V:1] GFG4FE | 
[V:2] c4c4 | 
[V:3] c2BAG4 | 
[V:4] E,4E,4 | 
[V:5] C,8 | 
[V:1] F8- | 
[V:2] c8- | 
[V:3] F8- | 
[V:4] C,4z2C,2 | 
[V:5] F,,8 | 
[V:1] F8 | 
[V:2] c8 | 
[V:3] F8 | 
[V:4] D,2E,2F,3E, | 
[V:5] z4F,,4 | 
[V:1] z8 | 
[V:2] z8 | 
[V:3] z4F4 | 
[V:4] D,2C,2D,4 | 
[V:5] G,,2A,,2B,,2D,2 | 
[V:1] z4F4 | 
[V:2] z8 | 
[V:3] G2A2B2d2 | 
[V:4] z8 | 
[V:5] C,4B,,4 | 
[V:1] G2A2B2c2- | 
[V:2] z2F2G2A2 | 
[V:3] c4B2F2 | 
[V:4] z8 | 
[V:5] z8 | 
[V:1] cBB4A2 | 
[V:2] B2d2c4 | 
[V:3] G4z4 | 
[V:4] z4z2F,2 | 
[V:5] z8 | 
[V:1] B4z4 | 
[V:2] B4z4 | 
[V:3] z8 | 
[V:4] G,4F,4 | 
[V:5] z2B,3A,A,G, | 
[V:1] z8 | 
[V:2] z8 | 
[V:3] z8 | 
[V:4] B,,4z2F,2- | 
[V:5] B,4B,,4- | 
[V:1] z8 | 
[V:2] z8 | 
[V:3] z8 | 
[V:4] F,2E,D,E,4 | 
[V:5] B,,4C,4 | 
[V:1] z8 | 
[V:2] z8 | 
[V:3] z4z2B2- | 
[V:4] F,3E,D,2B,,2 | 
[V:5] D,4D,4 | 
[V:1] z8 | 
[V:2] z4c4 | 
[V:3] B2AGA4 | 
[V:4] D,2_E,2C,4 | 
[V:5] z8 | 
[V:1] z8 | 
[V:2] d3cdef2- | 
[V:3] B3AG2F2 | 
[V:4] B,,8 | 
[V:5] z8 | 
[V:1] z8 | 
[V:2] f2ede4 | 
[V:3] A2B2G4 | 
[V:4] z8 | 
[V:5] z4C,4 | 
[V:1] z4F4- | 
[V:2] f3ed3c | 
[V:3] F8 | 
[V:4] z8 | 
[V:5] D,3C,D,E,F,2- | 
[V:1] F4G4 | 
[V:2] A2B2G4 | 
[V:3] z4z2c2 | 
[V:4] z4C,4 | 
[V:5] F,2E,D,E,4 | 
[V:1] A3GA2B2- | 
[V:2] F4z2d2 | 
[V:3] c4F3G | 
[V:4] F,,2F,4B,,2 | 
[V:5] F,3E,D,4 | 
[V:1] BAA4G2 | 
[V:2] d4d3e | 
[V:3] A2c2B4 | 
[V:4] F,4G,4 | 
[V:5] z4z2G,,2 | 
[V:1] A8 | 
[V:2] f2FGABc2- | 
[V:3] A8 | 
[V:4] F,6E,2 | 
[V:5] D,6C,2 | 
[V:1] A4B4 | 
[V:2] cBA4G2 | 
[V:3] c4d4 | 
[V:4] E,4D,4 | 
[V:5] A,,2C,2B,,4 | 
[V:1] c4z2A2 | 
[V:2] A8- | 
[V:3] c8- | 
[V:4] E,8 | 
[V:5] A,,8 | 
[V:1] A2cBAGA2- | 
[V:2] A4z4 | 
[V:3] c8 | 
[V:4] z4A,4 | 
[V:5] z2A,G,F,E,F,2- | 
[V:1] A2GFE3F | 
[V:2] z8 | 
[V:3] z8 | 
[V:4] A,4C4- | 
[V:5] F,2E,D,C,3D, | 
[V:1] GEA3GGF | 
[V:2] z4z2d2- | 
[V:3] z8 | 
[V:4] C2A,2B,4 | 
[V:5] E,2F,2G,4 | 
[V:1] A2c4BA | 
[V:2] d2c2e2f2 | 
[V:3] z8 | 
[V:4] A,8 | 
[V:5] D,2A,,2C,2D,2 | 
[V:1] B4z2A2 | 
[V:2] (3g2d2e2f4 | 
[V:3] G4F4 | 
[V:4] z8 | 
[V:5] G,,4D,4 | 
[V:1] BAGFE2G2- | 
[V:2] B2B2c2d2- | 
[V:3] z8 | 
[V:4] G,4G,4 | 
[V:5] z2G,2C,2G,2 | 
[V:1] GFEDE4 | 
[V:2] d2c3Bc2 | 
[V:3] z8 | 
[V:4] A,4G,4 | 
[V:5] D,2F,2C,4 | 
[V:1] F8- | 
[V:2] A4z2A2- | 
[V:3] F8 | 
[V:4] z2A,3G,F,2- | 
[V:5] F,,2F,3E,D,2- | 
[V:1] F8- | 
[V:2] A2B2c2B2 | 
[V:3] F8- | 
[V:4] F,E,D,2C,2D,2 | 
[V:5] D,C,B,,2A,,2B,,2 | 
[V:1] F8- | 
[V:2] A2F2A3B | 
[V:3] F8- | 
[V:4] C,8- | 
[V:5] F,,8- | 
[V:1] F8 |]  
[V:2] c8 |]  
[V:3] F8 |]  
[V:4] C,8 |]  
[V:5] F,,8 |]  



